svgs/thin/hands-bubbles.svg

<svg xmlns="http://www.w3.org/2000/svg" viewBox="0 0 576 512"><!--! Font Awesome Pro 6.3.0 by @fontawesome - https://fontawesome.com License - https://fontawesome.com/license (Commercial License) Copyright 2023 Fonticons, Inc. --><path d="M448 160c0 26.51 21.49 48 48 48S544 186.5 544 160s-21.49-48-48-48S448 133.5 448 160zM496 128c17.64 0 32 14.36 32 31.1s-14.36 32-32 32s-32-14.36-32-32S478.4 128 496 128zM112 416c-26.51 0-48 21.49-48 47.1s21.49 48 48 48S160 490.5 160 464S138.5 416 112 416zM112 496c-17.64 0-32-14.36-32-32s14.36-32 32-32s32 14.36 32 32S129.6 496 112 496zM503.1 304c6.787-9.035 9.43-20.51 7.262-31.79C507.7 253.5 490.8 240 471.1 240h-126.1c7.275-9.857 10.04-23.08 6.119-35.8c-5.264-16.88-20.63-28.18-38.27-28.18c-3.941 0-7.871 .582-11.67 1.729L192.5 211c-57.84 19.29-96.47 72.67-96.47 132.9v32.53c0 4.688 4.124 8.252 8.79 7.824c.0586-.0059-.0605 .0039 0 0c4.043-.3613 7.21-3.783 7.21-7.842v-32.52c0-53.38 34.03-100.6 85.19-117.7l107.7-33.25c2.354-.709 4.727-1.049 7.057-1.047c10.3 0 19.76 6.596 22.97 16.89c3.906 12.69-3.188 26.12-15.84 30.03L272 256h199.1c11.61 0 22.25 7.844 24.44 19.24C498.5 290.6 486.8 304 472 304h-128c-4.418 0-8 3.582-8 8s3.582 8 8 8h159.1c11.61 0 22.25 7.844 24.44 19.24C530.5 354.6 518.8 368 504 368h-160c-4.418 0-8 3.582-8 8s3.582 8 8 8h127.1c11.61 0 22.25 7.844 24.44 19.24C498.5 418.6 486.8 432 472 432h-128c-4.418 0-8 3.582-8 8s3.582 8 8 8h95.1c11.61 0 22.25 7.844 24.44 19.24C466.5 482.6 454.8 496 440 496h-208c-12.91 0-25.21-2.283-36.78-6.199c-3.855-1.305-8.068 .8398-9.613 4.605c-.0215 .0488 .0215-.0488 0 0c-1.715 4.154 .2207 9.084 4.48 10.52C203.7 509.5 217.8 512 232 512h206.9c8.217 0 16.45-2.041 23.26-6.635c13.84-9.338 20.16-25.44 17.14-41.15C478.1 458.2 475.5 452.7 471.1 448c11.97 0 23.26-5.299 30.89-14.54c7.629-9.236 10.69-21.35 8.406-33.24C510.1 394.2 507.5 388.7 503.1 384c11.97 0 23.26-5.299 30.89-14.54c7.629-9.236 10.69-21.35 8.406-33.24C539.7 317.8 523.3 304.4 503.1 304zM63.06 354.2C53.77 337.1 48.33 317.7 48 297.1V184.4c.1758-13.29 11.62-23.87 24.81-23.87c13.27 .0977 24.04 10.91 23.95 24.16l2.082 50.04l59.98-189.8c3.232-10.23 12.61-17.66 23.12-17.66c.8555 0 1.721 .0488 2.59 .1504c15.51 1.807 24.79 16.99 20.33 31.11L169.6 170.1C167.1 175.2 171.9 180.5 177.3 180.5C180.8 180.4 183.8 178.2 184.9 174.9l44.61-141.2C232.7 23.43 242.1 16 252.6 16c.8574 0 1.721 .0488 2.59 .1504c15.51 1.807 24.79 16.99 20.33 31.11L243.6 148.6C241.7 154.8 247.5 160.6 253.6 158.7C256.1 157.9 258.1 155.9 258.9 153.4l21.99-69.96c3.232-10.23 12.61-17.66 23.12-17.66c.8574 0 1.721 .0488 2.59 .1504c15.51 1.807 24.79 16.99 20.33 31.11l-11.86 37.53C313.6 139.3 316.8 144.1 321.7 144.8c.0527 .0078-.0547-.0078 0 0c3.801 .5859 7.508-1.752 8.666-5.42l1.936-6.129c3.234-10.23 12.61-17.66 23.12-17.66c.8555 0 1.721 .0488 2.59 .1504c15.51 1.807 24.79 16.99 20.33 31.11l-7.217 22.85c-.7266 2.301-.2363 4.851 1.084 6.87c.041 .0625-.0391-.0645 0 0c3.607 5.555 12.14 4.397 14.13-1.917l6.904-21.85c2.477-7.838 3.016-16.3 .6953-24.19c-4.721-16.03-18.18-26.91-34.08-28.77c-1.488-.1738-2.971-.2578-4.441-.2578c-4.568 0-9.037 .834-13.24 2.375c3.607-11.42 1.967-23.82-4.545-33.88c-6.508-10.05-17.14-16.62-29.16-18.03c-1.488-.1738-2.971-.2578-4.441-.2578c-4.57 0-9.039 .834-13.24 2.377c1.869-6.303 2.57-13.11 1.26-19.55C288.4 14.64 274.1 2.244 257 .2578C255.6 .084 254.1 0 252.6 0C235.7 0 220.1 11.46 214.5 27.99c-6.568-9.195-16.72-15.17-28.13-16.5C184.9 11.32 183.4 11.23 181.9 11.23c-17.23-.002-33.01 11.86-38.38 28.84L105.3 161.2C98.1 151.3 86.33 144.6 73.02 144.5c-22.42 0-40.72 17.79-41.01 39.66L32 297.1c.3691 23.22 6.461 45.13 17.12 64.5C53.06 368.8 64 366 64 357.8C64 356.6 63.67 355.3 63.06 354.2zM432 96C458.5 96 480 74.51 480 48S458.5 0 432 0S384 21.49 384 48S405.5 96 432 96zM432 16c17.64 0 32 14.36 32 32s-14.36 32-32 32s-32-14.36-32-32S414.4 16 432 16z"/></svg>

<svg xmlns="http://www.w3.org/2000/svg" viewBox="0 0 576 512"><!-- Font Awesome Pro 6.0.0-alpha2 by @fontawesome - https://fontawesome.com License - https://fontawesome.com/license (Commercial License) --><path d="M448 160C448 186.51 469.49 208 496 208S544 186.51 544 160S522.51 112 496 112S448 133.49 448 160ZM496 128C513.645 128 528 142.355 528 160S513.645 192 496 192S464 177.645 464 160S478.355 128 496 128ZM112 416C85.49 416 64 437.49 64 464S85.49 512 112 512S160 490.51 160 464S138.51 416 112 416ZM112 496C94.355 496 80 481.645 80 464S94.355 432 112 432S144 446.355 144 464S129.645 496 112 496ZM503.998 304.01C510.785 294.975 513.428 283.496 511.26 272.219C507.67 253.549 490.781 240 471.104 240H344.115C351.391 230.143 354.154 216.924 350.234 204.197C344.971 187.318 329.6 176.014 311.969 176.014C308.027 176.014 304.098 176.596 300.295 177.742L192.475 211.023C134.637 230.311 96.006 283.693 96.006 343.969V376.502C96.006 381.189 100.041 384.762 104.707 384.334C104.766 384.328 104.824 384.322 104.885 384.318C108.928 383.957 112.006 380.543 112.006 376.484V343.969C112.006 290.594 146.037 243.375 197.193 226.312L304.912 193.062C307.266 192.354 309.639 192.014 311.969 192.016C322.268 192.016 331.732 198.611 334.943 208.906C338.85 221.594 331.756 235.031 319.1 238.938L272.006 256H471.104C482.711 256 493.355 263.844 495.547 275.242C498.494 290.578 486.812 304 472.006 304H344.006C339.588 304 336.006 307.582 336.006 312S339.588 320 344.006 320H503.104C514.711 320 525.355 327.844 527.547 339.242C530.494 354.578 518.812 368 504.006 368H344.006C339.588 368 336.006 371.582 336.006 376S339.588 384 344.006 384H471.104C482.711 384 493.355 391.844 495.547 403.242C498.494 418.578 486.812 432 472.006 432H344.006C339.588 432 336.006 435.582 336.006 440S339.588 448 344.006 448H439.104C450.711 448 461.355 455.844 463.547 467.242C466.494 482.578 454.812 496 440.006 496H232.006C219.096 496 206.797 493.717 195.227 489.801C191.371 488.496 187.189 490.566 185.645 494.332C185.623 494.381 185.604 494.432 185.582 494.48C183.867 498.635 185.834 503.49 190.094 504.926C203.691 509.516 217.812 512 232.006 512H438.863C447.08 512 455.309 509.959 462.119 505.365C475.963 496.027 482.281 479.928 479.26 464.219C478.098 458.182 475.549 452.682 471.961 448H472.006C483.979 448 495.221 442.701 502.854 433.461C510.482 424.225 513.547 412.109 511.26 400.219C510.098 394.182 507.549 388.682 503.961 384H504.006C515.979 384 527.221 378.701 534.854 369.461C542.482 360.225 545.547 348.109 543.26 336.219C539.725 317.834 523.291 304.412 503.998 304.01ZM63.059 354.188C53.77 337.102 48.33 317.721 48 297.141V184.41C48.176 171.123 59.623 160.545 72.811 160.545H72.898C86.172 160.643 96.85 171.455 96.762 184.701L98.844 234.746L158.82 44.896C162.053 34.662 171.432 27.232 181.941 27.234C182.797 27.234 183.662 27.283 184.531 27.385C200.043 29.191 209.322 44.377 204.863 58.496L169.621 170.055C167.984 175.236 171.879 180.506 177.312 180.465C180.779 180.436 183.832 178.18 184.877 174.875L229.488 33.662C232.721 23.43 242.1 16 252.607 16C253.465 16 254.328 16.049 255.197 16.15C270.709 17.957 279.99 33.143 275.529 47.262L243.629 148.623C241.693 154.77 247.455 160.562 253.611 158.662C256.123 157.887 258.092 155.928 258.881 153.42L280.875 83.455C284.107 73.223 293.486 65.793 303.996 65.793C304.854 65.793 305.717 65.842 306.586 65.943C322.098 67.75 331.377 82.936 326.918 97.055L315.061 134.584C313.578 139.279 316.713 144.045 321.58 144.785C321.633 144.793 321.686 144.801 321.74 144.809C325.541 145.395 329.168 143.045 330.326 139.377L332.262 133.248C335.496 123.014 344.873 115.584 355.383 115.586C356.238 115.586 357.104 115.635 357.973 115.736C373.484 117.543 382.766 132.729 378.305 146.848L371.088 169.693C370.361 171.994 370.791 174.449 372.111 176.469C372.152 176.531 372.193 176.594 372.232 176.658C375.84 182.213 384.309 180.961 386.303 174.646L393.207 152.795C395.684 144.957 396.223 136.494 393.902 128.609C389.182 112.582 375.723 101.695 359.824 99.844C358.336 99.67 356.854 99.586 355.383 99.586C350.814 99.586 346.346 100.42 342.146 101.961L342.174 101.875C345.781 90.455 344.113 78.139 337.602 68.076C331.094 58.021 320.463 51.451 308.438 50.051C306.949 49.877 305.467 49.793 303.996 49.793C299.426 49.793 294.957 50.627 290.76 52.17L290.791 52.064C292.66 45.762 293.33 39.064 292.02 32.623C288.363 14.639 274.111 2.244 257.049 0.258C255.562 0.084 254.078 0 252.607 0C235.666 0 220.125 11.465 214.51 27.994C207.941 18.799 197.789 12.82 186.383 11.492C184.895 11.318 183.41 11.234 181.941 11.234C164.709 11.232 148.928 23.094 143.564 40.076L105.311 161.164C98.102 151.26 86.33 144.643 73.016 144.545C50.598 144.545 32.291 162.334 32.002 184.199L32 297.141C32.369 320.361 38.461 342.271 49.115 361.645C53.061 368.818 64 366.027 64 357.838C64 356.559 63.668 355.312 63.059 354.188ZM432 96C458.51 96 480 74.51 480 48S458.51 0 432 0S384 21.49 384 48S405.49 96 432 96ZM432 16C449.645 16 464 30.355 464 48S449.645 80 432 80S400 65.645 400 48S414.355 16 432 16Z"/></svg>
